svg/store_cog_outline.svg

<svg xmlns="http://www.w3.org/2000/svg" viewBox="0 0 24 24"><path d="M20 6H4V4h16zm-1 6c-1.91 0-3.63.76-4.89 2H14v.11c-1.24 1.26-2 2.98-2 4.89 0 .34.03.67.08 1H4v-6H3v-2l1-5h16l1 5v.3c-.63-.19-1.3-.3-2-.3m-7 2H6v4h6zm6.96-2-.6-3H5.64l-.6 3zm4.84 8.4c.1 0 .1.1 0 .2l-1 1.7c-.1.1-.2.1-.3.1l-1.2-.4c-.3.2-.5.3-.8.5l-.2 1.3c0 .1-.1.2-.2.2h-2c-.1 0-.2-.1-.3-.2l-.2-1.3c-.3-.1-.6-.3-.8-.5l-1.2.5c-.1 0-.2 0-.3-.1l-1-1.7c-.1-.1 0-.2.1-.3l1.1-.8v-1l-1.1-.8c-.1-.1-.1-.2-.1-.3l1-1.7c.1-.1.2-.1.3-.1l1.2.5c.3-.2.5-.3.8-.5l.2-1.3c0-.1.1-.2.3-.2h2c.1 0 .2.1.2.2l.2 1.3c.3.1.6.3.9.5l1.2-.5c.1 0 .3 0 .3.1l1 1.7c.1.1 0 .2-.1.3l-1.1.8v1zM20.5 19c0-.8-.7-1.5-1.5-1.5s-1.5.7-1.5 1.5.7 1.5 1.5 1.5 1.5-.7 1.5-1.5"/></svg>

<svg xmlns="http://www.w3.org/2000/svg" id="mdi-store-cog-outline" viewBox="0 0 24 24"><path d="M20 6H4V4H20V6M19 12C17.09 12 15.37 12.76 14.11 14H14V14.11C12.76 15.37 12 17.09 12 19C12 19.34 12.03 19.67 12.08 20H4V14H3V12L4 7H20L21 12V12.3C20.37 12.11 19.7 12 19 12M12 14H6V18H12V14M18.96 12L18.36 9H5.64L5.04 12H18.96M23.8 20.4C23.9 20.4 23.9 20.5 23.8 20.6L22.8 22.3C22.7 22.4 22.6 22.4 22.5 22.4L21.3 22C21 22.2 20.8 22.3 20.5 22.5L20.3 23.8C20.3 23.9 20.2 24 20.1 24H18.1C18 24 17.9 23.9 17.8 23.8L17.6 22.5C17.3 22.4 17 22.2 16.8 22L15.6 22.5C15.5 22.5 15.4 22.5 15.3 22.4L14.3 20.7C14.2 20.6 14.3 20.5 14.4 20.4L15.5 19.6V18.6L14.4 17.8C14.3 17.7 14.3 17.6 14.3 17.5L15.3 15.8C15.4 15.7 15.5 15.7 15.6 15.7L16.8 16.2C17.1 16 17.3 15.9 17.6 15.7L17.8 14.4C17.8 14.3 17.9 14.2 18.1 14.2H20.1C20.2 14.2 20.3 14.3 20.3 14.4L20.5 15.7C20.8 15.8 21.1 16 21.4 16.2L22.6 15.7C22.7 15.7 22.9 15.7 22.9 15.8L23.9 17.5C24 17.6 23.9 17.7 23.8 17.8L22.7 18.6V19.6L23.8 20.4M20.5 19C20.5 18.2 19.8 17.5 19 17.5S17.5 18.2 17.5 19 18.2 20.5 19 20.5 20.5 19.8 20.5 19Z" /></svg>
